X: 11092
T: SAVOURNA DELIGH, or ERIN GO BRAGH
Q: "Slow
%R: air, reel
B: "Edinburgh Repository of Music" v.1 p.109 #2 - p.110 #1
F: http://digital.nls.uk/special-collections-of-printed-music/pageturner.cfm?id=87776133
Z: 2015 John Chambers <jc:trillian.mit.edu>
M: C
L: 1/8
K: D
A |\
d2 d>e (dc) cd | TB>A(B=c) ~BAF>d |\
AGFE D2FA | B>cTc2 d3A |
(df) ad (cd/e/) dc | BAB=c TBAFd |\
A>B (A/G/).F/.E/ D2FA | B>cTc2 d3 :|
|: A |\
d2~d>e f2ef | g2fe fdB>c |\
(df)ed (ce)dc | BAB{d}=c BAF>a |
a2 (a/g/f/)e/ d2dc | TB>AFd Td>e {de}Hf2 |\
{edcB}A>B (A/G/)FE D2FA | B>cTc2 d3 :|

% - - - - tune continued onto next page - - - - %

%%sep 2 1 500
%%sep 1 1 500

